X:830
L:1/4
M:4/4
K:D
 F2 E E | D3 F | A A G G | F3 D | F F F F | A G F D | E E E E | G F E2 | F2 E E | D4 |]

